X:1
T:Tu es Petrus
T:Jan Tollius
T:Tu es Petrus
C:Jan Tollius
%%score [ 1 2 3 ]
L:1/8
Q:1/4=60
M:4/4
K:F
V:1 treble nm="Soprano" snm="S"
V:2 treble-8 nm="Tenor" snm="T"
V:3 bass nm="Bass" snm="B"
V:1
 z2 ^F3 G F2 | G4 z2 D2- | DE D2 E4 | z C c>B Ac F2 | z AAA c>B A/B/c- | c/B/A/G/ F2 E4 | %6
w: Tu es Pe-|trus, Tu|_ es Pe- trus,|et su- per hanc pe- tram|ae- di- fi- ca- * * * *|* * * * * bo|
 z2 z c G3 A | =B c2 B c4 | z4 z2 z G | G^F G2 D dBG | A2 D2 z2 z d | dd dc/B/ AG/F/ ED/C/ | %12
w: Ec- cle- si-|am me- * am,|non|prae- va- le- bunt ad- ver- sus|e- am. et|por- tae in- * * * * * * * *|
 =B, C2 B, C2 z2 | z2 z c c=B c2 | GGBd d/c/B/A/ G2 | ^F8 || G2 A>c =B2 c2 | d>d ce/e/ d2 e2 | %18
w: * * fe- ri|non prae- va- le-|bunt ad- ver- sus e- * * * *|am.|Et ti- bi da- bo|cla- ves Re- gni coe- lo- rum.|
 =B>B cc/c/ B2 c2 | G2 A>c =B2 c2 | d>d ce/e/ d2 e2 | =B>B cc/c/ B2 c2 | z4 c3 B | A2 G2 z d2 c- | %24
w: cla- ves Re- gni coe- lo- rum.|Et ti- bi da- bo|cla- ves Re- gni coe- lo- rum.|cla- ves Re- gni coe- lo- rum.|Et quod-|cum- que li- ga-|
 cB A2 z G2 F | E2 Dd- d c2 B- | B d2 A d3 f | e/d/ d2 ^c d2 d2- | dA B2 A2 d2- | %29
w: * ve- ris su- per|ter- ram, e- * rit li-|* ga- tum et in|coe- * * * lis. Et|_ quod- cum- que sol-|
 dc/B/ A>A =B2 c2- | cC D3/2C/4B,/4 C2 =B,2 | z2 z D EFGA | Bc d2- dc/B/ AG | A4 =B2 d2- | %34
w: * * * * ve- ris su-|* per ter- * * * ram|e- rit so- lu- tum|et in coe- * * * * *|* lis. Et|
 dA B2 A2 d2- | dc/B/ A>A =B2 c2- | cC D3/2C/4B,/4 C2 =B,2 | z2 z D EFGA | Bc d2- dc/B/ AG | %39
w: _ quod- cum- que sol-|* * * * ve- ris su-|* per ter- * * * ram|e- rit so- lu- tum|et in coe- * * * * *|
 A4 =B4- | B8 |] %41
w: * lis.|_|
V:2
 z2 A3 B A2 | G4 z2 =B2- | Bc =B2 c2 z C | c>B Ac F2 z A | AA c>B A/B<cB/A/G/ | A4 G2 G2 | %6
w: Tu es Pe-|trus, Tu|_ es Pe- trus, et|su- per hanc pe- tram ae-|di- fi- ca- * * * * * * *|* bo Ec-|
 =B3 c d2 _e2- | ed/c/ d2 c2 z _e | _ee ed/c/ BA/G/ FE/D/ | C>C DG G^F G2 | D dBG A2 D2 | %11
w: cle- si- am me-|* * * * am, et|por- tae in- * * * * * * * *|* fe- ri non prae- va- le-|bunt ad- ver- sus e- am.|
 z fff fe/d/ cB/A/ | GF/E/ D>D C2 z F | FE F2 CGAc | cB z d BG B2 | A8 || z4 G2 A>c | =B2 c2 z4 | %18
w: et por- tae in- * * * * *|* * * * fe- ri non|prae- va- le- bunt ad- ver- sus|e- am. ad- ver- sus e-|am.|Et ti- bi|da- bo|
 d>d ce/e/ d2 e2 | z4 G2 A>c | =B2 c2 z4 | d>d ce/e/ d2 e2 | c3 B A2 G2 | z c2 B2 A G2 | %24
w: cla- ves Re- gni coe- lo- rum.|Et ti- bi|da- bo|cla- ves Re- gni coe- lo- rum.|Et quod- cum- que|li- ga- ve- ris|
 z F2 E D2 Cc- | c B2 A- A c2 G | d3 f f3 e/d/ | cd e2 f4 | z2 d2- dA B2 | A2 d2- dc/=B/ A>A | %30
w: su- per ter- ram, e-|* rit li- * ga- tum|et in coe- * *|* * * lis.|Et _ quod- cum-|que sol- * * * * ve-|
 A A2 G ^F2 GD | EFGA Bc d>c | B/c/d/e/ f2- fe/f/ g2- | g2 ^f2 g4 | z2 d2- dA B2 | %35
w: ris su- per ter- ram e-|rit so- lu- tum et in coe- *||* * lis.|Et _ quod- cum-|
 A2 d2- dc/=B/ A>A | A A2 G ^F2 GD | EFGA Bc d>c | B/c/d/e/ f2- fe/f/ g2- | g2 ^f2 g4- | g8 |] %41
w: que sol- * * * * ve-|ris su- per ter- ram e-|rit so- lu- tum et in coe- *||* * lis.|_|
V:3
 D,3 ^C, D,4 | G,,4 G,3 ^F, | G,4 C,4- | C,2 z C, C>B, A,C | F,6 z F,, | F,,>E,, F,,2 C,2 C,2 | %6
w: Tu es Pe-|trus, Tu es|Pe- trus,|_ et su- per hanc pe-|tram ae-|di- fi- ca- bo Ec-|
 G,,3 A,, =B,,2 C,2 | G,,4 z4 | z G,G,G, G,F,/E,/ D,C,/B,,/ | A,,>A,, G,,2 z2 z G, | %10
w: cle- si- am me-|am,|et por- tae in- * * * * *|* fe- ri non|
 G,^F, G,2 D,D,F,A, | D,4 D,2 z2 | z2 z F, F,E, F,2 | C, CA,F, G,2 C,C, | E,G, G,,6 | D,8 || z8 | %17
w: prae- va- le- bunt ad- ver- sus|e- am.|non prae- va- le-|bunt ad- ver- sus e- am. ad-|ver- sus e-|am.||
 G,,2 A,,>C, =B,,2 C,2 | G,>G, A,C/C/ G,2 C,2 | z8 | G,,2 A,,>C, =B,,2 C,2 | G,>G, A,C/C/ G,2 C,2 | %22
w: Et ti- bi da- bo|cla- ves Re- gni coe- lo- rum.||Et ti- bi da- bo|cla- ves Re- gni coe- lo- rum.|
 z2 C,3 D, E,2 | F,2 z G,2 F,2 E, | D,2 z C,- C,B,, A,,2 | G,, G,2 F,- F, E,2 G,- | G,D, D4 D2 | %27
w: Et quod- cum-|que li- ga- ve-|ris su- * per ter-|ram, e- rit _ li- ga-|* tum et in|
 A,4 D,4 | D,3 G, ^F,2 G,2 | D,3 E,/F,/ G,>G, F,2 | F,,3 G,, A,,2 G,,2 | z D,E,F, G,A,B,C | D8- | %33
w: coe- lis.|Et quod- cum- que|sol- * * * ve- ris|su- per ter- ram|e- rit so- lu- tum et in|coe-|
 D4 G,4 | D,3 G, ^F,2 G,2 | D,3 E,/F,/ G,>G, F,2 | F,,3 G,, A,,2 G,,2 | z D,E,F, G,A,B,C | D8- | %39
w: * lis.|Et quod- cum- que|sol- * * * ve- ris|su- per ter- ram|e- rit so- lu- tum et in|coe-|
 D4 G,4- | G,8 |] %41
w: * lis.|_|

